-----BEGIN PGP PUBLIC KEY BLOCK-----

mQGNBGq5BqQBDADbeHnHvVExTWwSkFYVs3/f7kWBbVc02Hyp6NCNr6qLh3YNDOzL
cvFZZdiGAGgEWtgKKgqAYi9fckN8fbnu1Y5EOKc+YJP9CT/g8NyWqcAr7NA/r8J2
FjBWh2dyod9tg4BlFLQZ8C5PszqQFYvBGTvj1+4ep1GEMNytPmyHxiXR0HxlMSa/
HRjQ7gDWLJtaWBC9muPW4+SfFmml0F5oqLaQNuoVHrg7d7WCHSpZBizGx5Fg4Bpq
GoaCaJ1s+1zajha0UdTDpQXrIZOFfcP+aa9sYji62qJUSww6yB1TlZFfGoDrA/5P
82NTQhZF8HFNtcWFU8x3bLtnU/o36CvRk9jX4VWlvsv8RfIE4g3wR2YJNheUdkcP
Hvav9jhudY365Sr/9mm8DueeDJgAA/Ibt1XPdNIYoIjvlQr9kB8ZCzvQe+smU1QR
rOv6j+t1C0ITHp8GzbaPvTGqelhxzW/TA9QPevpMD2Thb87beIqN2S4kmrD+PhPQ
JQq4QJ+dnuY94okAEQEAAbRAcGluZy11aW4gYXB0IGFyY2hpdmUgKGh0dHBzOi8v
Z2l0aHViLmNvbS9hbHRvc2F4cGxheWVyL3BpbmctdWluKYkB9AQTAQgAXhYhBO+m
T24vwtpvfGmaHLuRHeNAD+hOBQJquQakGxSAAAAAAAQADm1hbnUyLDIuNSsxLjEy
LDAsMwMbLwQFCQPCZwAFCwkIBwICIgIGFQoJCAsCBBYCAwECHgcCF4AACgkQu5Ed
40AP6E7G3Av/cGRKdlvdWMYXSMfPSaC4s0UutCjKjkN/TnOTYub2eejXcMEXErmh
aNznyRowC4Dpu70Az3amLrQpwigZn9RSGxA0B8NFw75ZAD5cL7x+iYPaDkWfT3m9
dK2bk5pGqhEQifV5XSiwSOE1K173fqvYrofo9d5hFP1+zOEz1FUZhNXUvKjlDcz7
cfUG+iWqZH8+8RE8RM3Gs+INY5fj2BX/nTEOyoNYrteM7JntlbkH0ixuTM8j82yE
wub7dFQ0HDJKtP/Fr9ER4gIKdV9KfVGg/LZrwZ1whoDjSuGlAoBLqmYmZLHkrijB
Rn6PTETm0qAV5Rq0Rb91AImLUHgWP6Z1eGotU6KBqHIrFeJzd/UnGRGBYRarMTyx
bOSWiV7VD/6Y3rsg4QYalqMBMXuL5AYzENJkVyujCl9sYlnWmUAiYXOldBY2Xkbu
j30OseFE5f+KgPoBxpmU+uGWS/gQqwGciUruBR0Sljp1vFta7OZrn3xmR+elunLR
L9JQlw4gvaMTuQGNBGq5BqQBDAC7uJ3yW78itVBZdh9la9ClVU5eUip13TngNnhb
LKbfJauoK/Mt3qYcequtpO4T2AAkHjbAjeCU1u8ggllChRF1MM16x1/HU2f55XL4
gNHt2sPnVNSqw5v2GEWGQmcz6dbho5F6Gzc06YhS+lSGbRCxSXrZjueQ3vB7GgcS
MFxEsKqh4Tdx/PQjkJLZM7V+WZ78sJfbLXMpFz40qFw21wBrC0x7dxV1IFFbIeu/
ias6bkMLenM0zc1QahVrq1YP1Onga8obz5cQz2o+vl8GpqHwLr+XDcOvb05slh3I
AL5PSv23LLkFV0+x6xPEePnUXf9FPN9bgJpLWYX7TF8XxkNPK1NjkVFTe8LQ19bB
KnI2Da+0qCjQaFea6nOK7gJlWfEtTQ+UV7Y/Vbsvd7PXc6J6XzX4iC1p1Vv0tCn4
R6iGd9U5pPbcrWXj35QAi7xEboJSSwhtsvWac7cukh0qyQ7yLNC2pcBnnvmlb2gH
gE6S8wNyA0rMtzhjPzhXWWHmZ8UAEQEAAYkDjgQYAQgAQhYhBO+mT24vwtpvfGma
HLuRHeNAD+hOBQJquQakGxSAAAAAAAQADm1hbnUyLDIuNSsxLjEyLDAsMwIbLgUJ
A8JnAAHACRC7kR3jQA/oTsD0IAQZAQgAHRYhBDNMoSpZ5nqinPCRaDyLrGAeA7HK
BQJquQakAAoJEDyLrGAeA7HK1XUL/1GsLQ/lFVvQ6rQ61xTpKHTVVjCz6d7W0FpI
k1wNrwLZbJJSPBMGAHhJj5jwzz928UBU6BPFyrum0iSGwu0Oim4YCbqYmnxnMF7n
WqikGF0guXJDJiGaev8UTXu7qPsnaFoJkfE6G+xyt7hSLUVHw9tJckjg6TESagdj
hqYjASuyaOZd9b48JhgYs5c9CPMqeP10ighRAb5schrO6cRBxt4u+IrAFtqdqU3+
jcDtsBOIRlE1DTI8g7CA3C5LoOg6qnrXNK4iYL5P/yGOEjqS3NE9nIIIagYxOa/v
du1G7qcxaf0AkwiKSiwDddBw+XskfhBPfd5V1T4+gGhUjjEFdoxVfxYjp8O/per/
OHSW+/6d9g0GOcQRrPd5FKMGafdJzcSO26YS0yQURg8GeRaCWovqLhpB+RYeZGO7
oAJ0/xnn6nfmNGHQT9GQBVr2opYnL+Dn77O1+rWL0jR1m3QXsajhKBfKGu50OAyH
d6d9kZyXOp1OSxXF6htuGGgeCJq5hr8rDACF9m22NpeV13ovEAGiljSPA/uJq34V
a4o7LgoDMD5eUsfTH1N/ynJOKKGmvH7a+aKCuaKlyJIj2cJ59EMku/GAXWC7xH0v
TG7b7fcVOVrD9dJ4CYtgTBa/GcnA1YZSSmlHopwY4jd6JmI0mGv8ZQI3EHtjmcx+
e1QuWLpyqVCpYTDHolooAcZ/88Yf1829UM4iwK7PGwsknOHY1iFTpx2xcfe1E02c
Qz2Aj/hNobu12QmfzMudyKB1ZAuQATZAS72ujWjr5dUbj/9J7JsB5aodphRA1rcs
3wcVoOP5+AOVTzLdNxuhj9nACgC978vbLEIWdfBairbq62yyJCN8VrU8mmcN2dmp
7Re/kudt39POkyWDbhuieU2Q5R7IFLRkrVGG3gypbkRDAsBGL/wfJa6xn3hIiovr
xl32M/RusBDARhcSrTZ5BwfZY+kY+oeIbnMn0RyRFroJ3SavN+jd3vFixmTeO4Fm
N7n/Gi76RrLw2EKmd/l7YwEU6xhT4ISJpk8=
=S+Uw
-----END PGP PUBLIC KEY BLOCK-----
